modules/hawcons-filled/icons/icon-44-one-finger-swipe.svg

<?xml version="1.0" encoding="UTF-8" standalone="no"?>
<svg width="32px" height="32px" viewBox="0 0 32 32" version="1.1" xmlns="http://www.w3.org/2000/svg" xmlns:xlink="http://www.w3.org/1999/xlink" xmlns:sketch="http://www.bohemiancoding.com/sketch/ns">
    <!-- Generator: Sketch 3.0.3 (7891) - http://www.bohemiancoding.com/sketch -->
    <title>icon 44 one finger swipe</title>
    <desc>Created with Sketch.</desc>
    <defs></defs>
    <g id="Page-1" stroke="none" stroke-width="1" fill="none" fill-rule="evenodd" sketch:type="MSPage">
        <g id="icon-44-one-finger-swipe" sketch:type="MSArtboardGroup" fill="#929292">
            <path d="M12.0278925,14 C12.2600811,11.9115065 13.9154776,10.2577821 16,10.0274511 L16,10.0274511 L16,3.950001 L16,3.950001 L12.75,7.200001 L12,6.450001 L16.5,1.950001 L21,6.450001 L20.25,7.200001 L17,3.950001 L17,10.0275945 C19.0806613,10.2586377 20.7390274,11.9142645 20.9719734,14 L27.049999,14 L23.799999,10.75 L24.549999,10 L29.049999,14.5 L24.549999,19 L23.799999,18.25 L27.049999,15 L21,15 L21,15 L21,31 L12,31 L12,15 L5.950001,15 L5.950001,15 L9.200001,18.25 L8.450001,19 L3.950001,14.5 L8.450001,10 L9.200001,10.75 L5.950001,14 L12.0278925,14 L12.0278925,14 Z M16.5,12 C15.1192881,12 14,13.1285541 14,14.5097752 L14,18 L19,18 L19,14.5097752 C19,13.1236646 17.8903379,12 16.5,12 L16.5,12 Z M14,21 L14,22 L19,22 L19,21 L14,21 L14,21 Z M14,23 L14,24 L19,24 L19,23 L14,23 L14,23 Z" id="one-finger-swipe" sketch:type="MSShapeGroup"></path>
        </g>
    </g>
</svg>

<svg width="32" height="32" xmlns="http://www.w3.org/2000/svg"><path d="M12.028 14A4.501 4.501 0 0 1 16 10.027V3.95L12.75 7.2 12 6.45l4.5-4.5 4.5 4.5-.75.75L17 3.95v6.078A4.509 4.509 0 0 1 20.972 14h6.078l-3.25-3.25.75-.75 4.5 4.5-4.5 4.5-.75-.75L27.05 15H21v16h-9V15H5.95l3.25 3.25-.75.75-4.5-4.5 4.5-4.5.75.75L5.95 14h6.078zm4.472-2c-1.38 0-2.5 1.129-2.5 2.51V18h5v-3.49c0-1.386-1.11-2.51-2.5-2.51zM14 21v1h5v-1h-5zm0 2v1h5v-1h-5z" fill="#929292" fill-rule="evenodd"/></svg>
